web/themes/custom/surf_main/images/icons/ui-icon-file-pdf.svg

<svg fill="none" height="28" viewBox="0 0 28 28" width="28" xmlns="http://www.w3.org/2000/svg"><path d="m17.7336 3.11111v5.22667h5.2267" stroke="#222" stroke-width="1.5"/><path d="m5.53763 24.0178v-20.90669h12.19557l5.2266 5.22667v15.68002z" stroke="#222" stroke-width="1.5"/><path d="m4.66667 14.4356h19.1644v10.4533h-19.1644z" fill="#222"/><g fill="#fff"><path d="m8.54068 19.3304v-2.118h.52537c.31522 0 .53996.0911.67422.2733s.20139.449.20139.8003c0 .3579-.0788.6214-.23641.7906-.15178.1692-.35317.2538-.60418.2538zm-1.26088-3.1526v6.9689h1.26088v-2.7817h.67422c.29771 0 .56915-.0423.8143-.1269.2452-.0846.4524-.2115.6217-.3807.1751-.1691.3094-.3871.4028-.6539.0992-.2668.1488-.5791.1488-.937 0-.2603-.0291-.514-.0875-.7613-.0584-.2538-.1547-.4783-.289-.6735-.1342-.1952-.3123-.3513-.5341-.4685-.216-.1236-.4845-.1854-.80556-.1854z"/><path d="m13.5803 22.1121v-4.8997h.5341c.2394 0 .4291.052.5692.1562.1459.0976.2539.2472.324.4489.0758.1952.1255.4425.1488.7418.0234.2993.035.6475.035 1.0444 0 .475-.0146.8719-.0437 1.1907-.0234.3189-.0759.5759-.1577.7711-.0758.1952-.1809.3351-.3152.4197-.1342.0846-.3123.1269-.5341.1269zm-1.2609-5.9343v6.9689h1.9877c.4203 0 .7676-.0716 1.042-.2147.2743-.1432.4932-.3612.6567-.654.1634-.2928.2772-.6637.3414-1.1127.0701-.4554.1051-.989.1051-1.6007 0-.514-.0262-.9793-.0788-1.3957-.0525-.4164-.1547-.7711-.3064-1.0639-.146-.2993-.3532-.527-.6217-.6832-.2686-.1627-.6217-.244-1.0595-.244z"/><path d="m17.7239 16.1778v6.9689h1.2609v-3.0257h2.1014v-1.1517h-2.1014v-1.6398h2.2328v-1.1517z"/></g></svg>

<svg width="28" height="28" viewBox="0 0 28 28" fill="none" xmlns="http://www.w3.org/2000/svg">
<path d="M17.7336 3.11111V8.33778H22.9603" stroke="#222222" stroke-width="1.5"/>
<path d="M5.53763 24.0178V3.11111H17.7332L22.9598 8.33778V24.0178H5.53763Z" stroke="#222222" stroke-width="1.5"/>
<rect width="19.1644" height="10.4533" transform="translate(4.66667 14.4356)" fill="#222222"/>
<path d="M8.54068 19.3304V17.2124H9.06605C9.38127 17.2124 9.60601 17.3035 9.74027 17.4857C9.87453 17.6679 9.94166 17.9347 9.94166 18.286C9.94166 18.6439 9.86286 18.9074 9.70525 19.0766C9.55347 19.2458 9.35208 19.3304 9.10107 19.3304H8.54068ZM7.2798 16.1778V23.1467H8.54068V20.365H9.2149C9.51261 20.365 9.78405 20.3227 10.0292 20.2381C10.2744 20.1535 10.4816 20.0266 10.6509 19.8574C10.826 19.6883 10.9603 19.4703 11.0537 19.2035C11.1529 18.9367 11.2025 18.6244 11.2025 18.2665C11.2025 18.0062 11.1734 17.7525 11.115 17.5052C11.0566 17.2514 10.9603 17.0269 10.826 16.8317C10.6918 16.6365 10.5137 16.4804 10.2919 16.3632C10.0759 16.2396 9.8074 16.1778 9.48634 16.1778H7.2798Z" fill="white"/>
<path d="M13.5803 22.1121V17.2124H14.1144C14.3538 17.2124 14.5435 17.2644 14.6836 17.3686C14.8295 17.4662 14.9375 17.6158 15.0076 17.8175C15.0834 18.0127 15.1331 18.26 15.1564 18.5593C15.1798 18.8586 15.1914 19.2068 15.1914 19.6037C15.1914 20.0787 15.1768 20.4756 15.1477 20.7944C15.1243 21.1133 15.0718 21.3703 14.99 21.5655C14.9142 21.7607 14.8091 21.9006 14.6748 21.9852C14.5406 22.0698 14.3625 22.1121 14.1407 22.1121H13.5803ZM12.3194 16.1778V23.1467H14.3071C14.7274 23.1467 15.0747 23.0751 15.3491 22.932C15.6234 22.7888 15.8423 22.5708 16.0058 22.278C16.1692 21.9852 16.283 21.6143 16.3472 21.1653C16.4173 20.7099 16.4523 20.1763 16.4523 19.5646C16.4523 19.0506 16.4261 18.5853 16.3735 18.1689C16.321 17.7525 16.2188 17.3978 16.0671 17.105C15.9211 16.8057 15.7139 16.578 15.4454 16.4218C15.1768 16.2591 14.8237 16.1778 14.3859 16.1778H12.3194Z" fill="white"/>
<path d="M17.7239 16.1778V23.1467H18.9848V20.121H21.0862V18.9693H18.9848V17.3295H21.2176V16.1778H17.7239Z" fill="white"/>
</svg>
